icons/2_Variations/AOL bg.var.svg

<svg width="1024" height="1024" fill="none" xmlns="http://www.w3.org/2000/svg"><g clip-path="url(#a)"><path d="M512 1024c282.77 0 512-229.23 512-512S794.77 0 512 0 0 229.23 0 512s229.23 512 512 512Z" fill="#9ABEFF"/><path d="M538.76 432.89c63.15 0 93.47 49.93 93.47 92.64s-30.33 92.66-93.48 92.66c-63.15 0-93.49-49.94-93.49-92.66s30.32-92.64 93.48-92.64m0 136.63c22.49 0 41.57-18.55 41.57-43.99s-19.08-43.96-41.57-43.96c-22.49 0-41.6 18.52-41.6 43.96s19.09 43.99 41.6 43.99Zm122.83-188.65h52.6v232.45h-52.6V380.87Zm115.45 164.18c-19.29 0-34.92 15.67-34.92 34.95s15.64 34.95 34.92 34.95 34.97-15.66 34.97-34.95c0-19.29-15.67-34.95-34.97-34.95ZM350.39 380.87h-46.84l-91.56 232.45h62.04l12.27-33.59h80.73l11.3 33.59h62.68l-90.63-232.45h.01Zm-47.75 151.7 24.35-81.04 24.34 81.05h-48.69v-.01Z" fill="#fff"/></g><defs><clipPath id="a"><path fill="#fff" d="M0 0h1024v1024H0z"/></clipPath></defs></svg>

<svg width="1024" height="1024" viewBox="0 0 1024 1024" fill="none" xmlns="http://www.w3.org/2000/svg">
<g clip-path="url(#clip0_3_380)">
<path d="M512 1024C794.77 1024 1024 794.77 1024 512C1024 229.23 794.77 0 512 0C229.23 0 0 229.23 0 512C0 794.77 229.23 1024 512 1024Z" fill="#9ABEFF"/>
<path d="M538.76 432.89C601.91 432.89 632.23 482.82 632.23 525.53C632.23 568.24 601.9 618.19 538.75 618.19C475.6 618.19 445.26 568.25 445.26 525.53C445.26 482.81 475.58 432.89 538.74 432.89M538.74 569.52C561.23 569.52 580.31 550.97 580.31 525.53C580.31 500.09 561.23 481.57 538.74 481.57C516.25 481.57 497.14 500.09 497.14 525.53C497.14 550.97 516.23 569.52 538.74 569.52ZM661.57 380.87H714.17V613.32H661.57V380.87ZM777.02 545.05C757.73 545.05 742.1 560.72 742.1 580C742.1 599.28 757.74 614.95 777.02 614.95C796.3 614.95 811.99 599.29 811.99 580C811.99 560.71 796.32 545.05 777.02 545.05ZM350.39 380.87H303.55L211.99 613.32H274.03L286.3 579.73H367.03L378.33 613.32H441.01L350.38 380.87H350.39ZM302.64 532.57L326.99 451.53L351.33 532.58H302.64V532.57Z" fill="white"/>
</g>
<defs>
<clipPath id="clip0_3_380">
<rect width="1024" height="1024" fill="white"/>
</clipPath>
</defs>
</svg>
